!!!COM: Gaspar van Weerbeke
!!!CDT: ~1450-~1517
!!!OPR: Missa O venus bant
!!!OTL: Kyrie
!!!ONM: 1
!!!AGN: Mass
!!!SCT: Gas0102a
!!!SCA: Gas0102a
!!!voices: 4
**kern	**text	**kern	**text	**kern	**text	**kern	**text
*part4	*part4	*part3	*part3	*part2	*part2	*part1	*part1
*staff4	*staff4	*staff3	*staff3	*staff2	*staff2	*staff1	*staff1
*I"Bassus	*	*I"Tenor	*	*I"Altus	*	*I"Superius	*
*I'B	*	*I'T	*	*I'A	*	*I'S	*
*clefF4	*	*clefGv2	*	*clefGv2	*	*clefG2	*
*k[]	*	*k[]	*	*k[]	*	*k[]	*
*M3/2	*	*M3/2	*	*M3/2	*	*M3/2	*
*met(O)	*	*met(O)	*	*met(O)	*	*met(O)	*
=1	=1	=1	=1	=1	=1	=1	=1
1.r	.	1.r	.	2G	Ky-	2g	Ky-
.	.	.	.	4A	.	2f	-ri-
.	.	.	.	4A	-ri-	.	.
.	.	.	.	4.G	.	4e	.
.	.	.	.	.	.	[4d	.
.	.	.	.	8A	.	.	.
=2	=2	=2	=2	=2	=2	=2	=2
1.r	.	1.r	.	4B	.	4d]	.
*	*	*	*	*	*	*	*edit
.	.	.	.	4c	.	2g	-e
.	.	.	.	2A	-e	.	.
.	.	.	.	.	.	4f#i	.
.	.	.	.	4G	.	4g	.
*	*	*	*	*	*edit	*	*
.	.	.	.	[4c	e-	[4a	e-
=3	=3	=3	=3	=3	=3	=3	=3
1.r	.	1.r	.	4c]	.	8a]L	.
.	.	.	.	.	.	8gJ	.
.	.	.	.	2A	.	4.cc	.
.	.	.	.	.	.	8b	.
.	.	.	.	4.d	.	4a	.
.	.	.	.	.	.	4.dd	.
.	.	.	.	8cL	.	.	.
.	.	.	.	8B	.	.	.
.	.	.	.	8AJ	.	8cc	.
=4	=4	=4	=4	=4	=4	=4	=4
4r	.	1.r	.	4G	.	8bL	.
.	.	.	.	.	.	16aL	.
.	.	.	.	.	.	16gJJ	.
4F	Ky-	.	.	4c	.	4a	.
4G	.	.	.	4B	.	4d	.
4E	-ri-	.	.	4G	.	2g	.
2D	.	.	.	2A	.	.	.
.	.	.	.	.	.	4f#i	.
!!LO:LB:g=original
=5	=5	=5	=5	=5	=5	=5	=5
*	*edit	*	*	*	*	*	*
4E	-e	1.r	.	2.G	-ley-	2g	-ley-
4C	e-	.	.	.	.	.	.
4BB	.	.	.	.	.	4b	.
4C	.	.	.	2A	.	4a	.
2D	-ley-	.	.	.	.	8g	.
.	.	.	.	.	.	4f	.
.	.	.	.	4B	.	.	.
.	.	.	.	.	.	16eLL	.
.	.	.	.	.	.	16dJJ	.
=6	=6	=6	=6	=6	=6	=6	=6
1C	-son,	1.r	.	1.c	-son,	2e	-son,
.	.	.	.	.	.	2r	.
2AA	Ky-	.	.	.	.	2a	Ky-
=7	=7	=7	=7	=7	=7	=7	=7
*	*	*lig	*	*	*	*	*
*col	*	*col	*	*	*	*	*
1GG	-ri-	[1.G	Ky-	4.B	Ky-	4.b	-ri-
.	.	.	.	8c	.	8a	.
.	.	.	.	4d	.	8gL	.
.	.	.	.	.	.	8f	.
.	.	.	.	4B	-ri-	8e	.
.	.	.	.	.	.	8dJ	.
*lig	*	*	*	*	*	*	*
2C	-e	.	.	4.c	-e	4.e	-e
.	.	.	.	8B	.	8f	.
=8	=8	=8	=8	=8	=8	=8	=8
*	*	*	*	*lig	*	*	*
2E	.	2G]	.	2G	.	4g	.
*Xlig	*	*	*	*	*	*	*
.	.	.	.	.	.	4e	.
*lig	*	*	*	*	*	*	*
2D	.	1A	.	2d	.	4.f	e-
*	*	*Xcol	*	*	*	*	*
*	*	*Xlig	*	*Xlig	*	*	*
.	.	.	.	.	.	8g	.
2AA	.	.	.	4c	e-	8aL	.
*Xlig	*	*	*	*	*	*	*
*Xcol	*	*	*	*	*	*	*
.	.	.	.	.	.	8b	.
.	.	.	.	4A	.	8cc	.
.	.	.	.	.	.	8ddJ	.
!!LO:LB:g=original
=9	=9	=9	=9	=9	=9	=9	=9
4r	.	4G	-ri-	4B	.	4b	.
4AA	e-	4F	.	4c	.	2a	.
4GG	.	2G	.	8.BL	.	.	.
.	.	.	.	16cJk	.	.	.
4BB	.	.	.	4d	.	2g	.
4C	.	2A	.	8cL	.	.	.
.	.	.	.	8e	.	.	.
4D	.	.	.	16fL	.	4f#j	.
.	.	.	.	16e	.	.	.
.	.	.	.	16d	.	.	.
.	.	.	.	16cJJ	.	.	.
=10	=10	=10	=10	=10	=10	=10	=10
*col	*	*	*	*	*	*	*
4.E	.	1.G	-e,	4.B	.	2g	-ley-
8C	.	.	.	8A	.	.	.
*Xcol	*	*	*	*	*	*	*
2C	-ley-	.	.	2c	-ley-	2g	-son,
2C	-son,	.	.	4.c	-son,	2r	.
.	.	.	.	8B	.	.	.
=11	=11	=11	=11	=11	=11	=11	=11
*	*	*	*edit	*	*	*	*
4.C	Ky-	2.c	Ky-	2G	.	4.e	Ky-
8D	.	.	.	.	.	8f	.
4E	.	.	.	2r	.	4g	.
4F	-ri-	4c	-ri-	.	.	4a	-ri-
4E	.	4.c	-e	2r	.	4g	.
[4F	-e	.	.	.	.	[4a	-e
.	.	8B	.	.	.	.	.
=12	=12	=12	=12	=12	=12	=12	=12
*	*	*col	*	*	*	*	*
4F]	.	1A	.	2c	Ky-	4a]	.
4C	.	.	.	.	.	4cc	.
2D	.	.	.	2F	-ri-	8b	.
.	.	.	.	.	.	4a	.
.	.	.	.	.	.	16gLL	.
.	.	.	.	.	.	16fJJ	.
*	*	*lig	*	*	*	*	*
[2C	.	[2c	e-	4G	-e	4.e	.
.	.	.	.	4A	.	.	.
.	.	.	.	.	.	8f	.
!!LO:LB:g=original
=13	=13	=13	=13	=13	=13	=13	=13
2C]	.	2c]	.	4G	.	4g	.
.	.	.	.	4c	e-	4a	.
2r	.	1G	.	2B	-ley-	2b	.
*	*	*Xlig	*	*	*	*	*
2E	e-	.	.	2B	-son,	4.g	e-
.	.	.	.	.	.	8e	.
=14	=14	=14	=14	=14	=14	=14	=14
4.D	-ley-	[1.d	-ley-	4r	.	4.f	-ley-
.	.	.	.	2d	Ky-	.	.
8E	.	.	.	.	.	8g	.
4F	.	.	.	.	.	4a	.
4G	.	.	.	4B	-ri-	4b	.
4D	.	.	.	4d	.	4a	.
[4G	.	.	.	4G	-e	4b	.
=15	=15	=15	=15	=15	=15	=15	=15
8G]L	.	2d]	.	1.r	.	8bL	.
8A	.	.	.	.	.	8ccJ	.
8B	.	.	.	.	.	4dd	-son,
8cJ	-son,	.	.	.	.	.	.
4.A	e-	1c	-son,	.	.	4r	.
*	*	*Xcol	*	*	*	*	*
.	.	.	.	.	.	4.a	e-
8G	.	.	.	.	.	.	.
4F	.	.	.	.	.	.	.
.	.	.	.	.	.	8g	.
4E	.	.	.	.	.	4g	.
=16	=16	=16	=16	=16	=16	=16	=16
4D	-ley-	1.d	e-	4A	e-	4f	.
4G	.	.	.	4B	.	8.dL	-ley-
.	.	.	.	.	.	16eJk	.
4D	.	.	.	4A	.	4f	.
4G	-son,	.	.	4.G	-ley-	4g	.
2r	.	.	.	.	.	4d	-son,
.	.	.	.	8AL	.	.	.
.	.	.	.	8B	.	[4g	e-
.	.	.	.	8cJ	.	.	.
!!LO:PB:g=original
=17	=17	=17	=17	=17	=17	=17	=17
2r	.	4B	.	1d	-son,	8g]L	.
.	.	.	.	.	.	8a	.
.	.	4G	.	.	.	8b	.
.	.	.	.	.	.	8ccJ	.
*	*	*	*Xedit	*	*	*	*
2.D	e-	2A	-ley-	.	.	4.a	-ley-
.	.	.	.	.	.	8g	.
.	.	2A	-son,	2r	.	4f	.
4C	.	.	.	.	.	4e	.
=18	=18	=18	=18	=18	=18	=18	=18
2BB	.	1.r	.	4.D	e-	2d	-son,
.	.	.	.	8E	.	.	.
4AA	.	.	.	4F	.	4a	e-
4GG	.	.	.	4G	.	4b	.
4D	.	.	.	4D	.	4a	.
*	*	*	*	*	*	*	*Xedit
4GG	.	.	.	4G	.	[4b	-ley-
=19	=19	=19	=19	=19	=19	=19	=19
*	*Xedit	*	*	*	*Xedit	*	*
4G	-ley-	1.r	.	8GL	-ley-	8b]L	.
.	.	.	.	8A	.	8aJ	.
4E	.	.	.	8B	.	4g	.
.	.	.	.	8cJ	.	.	.
4D	.	.	.	4A	.	4f	.
4E	.	.	.	4G	.	2g	.
2D	.	.	.	2A	.	.	.
.	.	.	.	.	.	4f#i	.
=20	=20	=20	=20	=20	=20	=20	=20
*	*	*	*edit	*	*	*	*
1.GGl	-son.	1.Gl	--son.	1.Gl	-son.	1.gl	-son.
!!LO:LB:g=original
=21||	=21||	=21||	=21||	=21||	=21||	=21||	=21||
*M2/2	*	*M2/2	*	*M2/2	*	*M2/2	*
*met(C|)	*	*met(C|)	*	*met(C|)	*	*met(C|)	*
1r	.	1r	.	1G	Chri-	[1b	Chri-
=22	=22	=22	=22	=22	=22	=22	=22
1r	.	1r	.	1d	.	2b]	.
.	.	.	.	.	.	2a	.
=23	=23	=23	=23	=23	=23	=23	=23
1r	.	1r	.	2e	.	2g	.
.	.	.	.	2c	.	[2cc	.
=24	=24	=24	=24	=24	=24	=24	=24
1r	.	1r	.	1d	.	2cc]	.
.	.	.	.	.	.	[2b	.
=25	=25	=25	=25	=25	=25	=25	=25
1r	.	1r	.	2c	.	4b]	.
.	.	.	.	.	.	4a	.
.	.	.	.	2A	.	[2a	.
=26	=26	=26	=26	=26	=26	=26	=26
1r	.	1r	.	1B	-ste,	2a]	.
.	.	.	.	.	.	2g#i	.
!!LO:LB:g=original
=27	=27	=27	=27	=27	=27	=27	=27
*	*	*	*	*lig	*edit	*	*
1r	.	1r	.	2A	Chri-	2a	-ste,
.	.	.	.	2d	.	2r	.
=28	=28	=28	=28	=28	=28	=28	=28
*	*	*	*	*Xlig	*	*	*edit
1r	.	1r	.	8dL	.	2a	Chri-
.	.	.	.	8c	.	.	.
.	.	.	.	8B	.	.	.
.	.	.	.	8AJ	.	.	.
.	.	.	.	2G	.	2dd	.
=29	=29	=29	=29	=29	=29	=29	=29
1r	.	1r	.	4D	.	8ddL	.
.	.	.	.	.	.	8cc	.
.	.	.	.	2G	.	8b	.
.	.	.	.	.	.	8aJ	.
.	.	.	.	.	.	2g	.
.	.	.	.	4A	.	.	.
=30	=30	=30	=30	=30	=30	=30	=30
1r	.	1r	.	4B	.	4d	.
.	.	.	.	4c	.	2g	.
.	.	.	.	2A	.	.	.
.	.	.	.	.	.	4a	.
=31	=31	=31	=31	=31	=31	=31	=31
1r	.	1r	.	2G	-ste	4b	.
.	.	.	.	.	.	4cc	.
.	.	.	.	4r	.	2a	.
.	.	.	.	4c	e-	.	.
=32	=32	=32	=32	=32	=32	=32	=32
1r	.	1r	.	4B	.	2g	-ste
.	.	.	.	4G	.	.	.
.	.	.	.	2A	.	4r	.
.	.	.	.	.	.	4cc	e-
!!LO:LB:g=original
=33	=33	=33	=33	=33	=33	=33	=33
1r	.	1r	.	4G	.	4b	.
.	.	.	.	2c	.	4g	.
.	.	.	.	.	.	2a	.
.	.	.	.	[4d	.	.	.
=34	=34	=34	=34	=34	=34	=34	=34
1r	.	1r	.	4d]	.	4.b	.
.	.	.	.	2e	.	.	.
.	.	.	.	.	.	8g	.
.	.	.	.	.	.	4g	.
.	.	.	.	[4d	.	4a	.
=35	=35	=35	=35	=35	=35	=35	=35
1r	.	1r	.	4d]	.	4d	.
.	.	.	.	8cL	.	4f	.
.	.	.	.	8BJ	.	.	.
.	.	.	.	2c	.	2e	.
=36	=36	=36	=36	=36	=36	=36	=36
1r	.	1r	.	4B	.	4d	.
.	.	.	.	4.G	-ley-	4.g	-ley-
.	.	.	.	8F	.	8aL	.
.	.	.	.	4G	.	8b	.
.	.	.	.	.	.	8ccJ	.
=37	=37	=37	=37	=37	=37	=37	=37
1r	.	1r	.	4D	.	4dd	.
.	.	.	.	4.G	.	2b	.
.	.	.	.	8AL	.	.	.
.	.	.	.	8B	.	8aL	.
.	.	.	.	8cJ	.	8gJ	.
=38	=38	=38	=38	=38	=38	=38	=38
1r	.	1r	.	4d	.	4f	.
.	.	.	.	2B	.	4.g	.
.	.	.	.	.	.	8aL	.
.	.	.	.	8AL	.	8b	.
.	.	.	.	8GJ	.	8ccJ	.
!!LO:LB:g=original
=39	=39	=39	=39	=39	=39	=39	=39
1r	.	1r	.	4F#i	.	4a	.
.	.	.	.	2G	.	4g	.
.	.	.	.	.	.	2a	.
.	.	.	.	4F#i	.	.	.
=40	=40	=40	=40	=40	=40	=40	=40
4.GG	Chri-	1r	.	2G	-son,	2g	-son,
8AA	.	.	.	.	.	.	.
4BB	.	.	.	4r	.	2r	.
[4C	.	.	.	[4G	Chri-	.	.
=41	=41	=41	=41	=41	=41	=41	=41
4C]	.	1r	.	8G]L	.	1r	.
.	.	.	.	8AJ	.	.	.
4D	.	.	.	4B	.	.	.
4C	.	.	.	4c	.	.	.
[4F	.	.	.	[4d	.	.	.
=42	=42	=42	=42	=42	=42	=42	=42
8F]L	.	1r	.	8d]L	.	1r	.
8E	.	.	.	8c	.	.	.
8D	.	.	.	8B	.	.	.
8CJ	.	.	.	8AJ	.	.	.
2D	.	.	.	2B	.	.	.
=43	=43	=43	=43	=43	=43	=43	=43
4AA	-ste,	1r	.	4c	-ste,	1r	.
4C	.	.	.	4A	.	.	.
4BB	.	.	.	2G	.	.	.
4GG	.	.	.	.	.	.	.
=44	=44	=44	=44	=44	=44	=44	=44
*	*edit	*	*	*	*	*	*
2G	Chri-	1r	.	4r	.	1r	.
.	.	.	.	4.d	Chri-	.	.
4F#j	.	.	.	.	.	.	.
.	.	.	.	8c	.	.	.
[4G	.	.	.	[4B	.	.	.
!!LO:PB:g=original
=45	=45	=45	=45	=45	=45	=45	=45
4G]	.	1r	.	8B]L	.	1r	.
.	.	.	.	8AJ	.	.	.
4B	.	.	.	2G	.	.	.
2A	.	.	.	.	.	.	.
.	.	.	.	4F#i	.	.	.
=46	=46	=46	=46	=46	=46	=46	=46
4G	-ste,	1r	.	4G	.	1r	.
4GG	Chri-	.	.	4B	.	.	.
4AA	.	.	.	4A	.	.	.
4BB	.	.	.	[4G	.	.	.
=47	=47	=47	=47	=47	=47	=47	=47
4GG	.	1r	.	4G]	.	1r	.
2C	-ste	.	.	4E	.	.	.
.	.	.	.	2D	-ste	.	.
4BB	.	.	.	.	.	.	.
=48	=48	=48	=48	=48	=48	=48	=48
*lig	*	*	*	*	*	*	*
2C	e-	1r	.	4r	.	1r	.
.	.	.	.	2c	e-	.	.
2F	.	.	.	.	.	.	.
*Xlig	*	*	*	*	*	*	*
.	.	.	.	4d	.	.	.
=49	=49	=49	=49	=49	=49	=49	=49
4E	.	1r	.	4c	.	1r	.
2G	.	.	.	2e	.	.	.
4F	.	.	.	[4d	.	.	.
=50	=50	=50	=50	=50	=50	=50	=50
4E	.	1r	.	4d]	.	1r	.
4C	.	.	.	2c	-ley-	.	.
2D	-ley-	.	.	.	.	.	.
.	.	.	.	4B	.	.	.
!!LO:LB:g=original
=51	=51	=51	=51	=51	=51	=51	=51
*lig	*	*	*	*	*	*	*
2C	-son,	1r	.	2c	-son,	1r	.
2AA	.	.	.	4r	.	.	.
*Xlig	*	*	*	*	*	*	*
.	.	.	.	4c	Chri-	.	.
=52	=52	=52	=52	=52	=52	=52	=52
4.GG	Chri-	1r	.	4B	.	1r	.
.	.	.	.	2d	.	.	.
8AA	.	.	.	.	.	.	.
4BB	.	.	.	.	.	.	.
4C	.	.	.	4c	.	.	.
=53	=53	=53	=53	=53	=53	=53	=53
4D	.	1r	.	4B	.	2r	.
4E	.	.	.	4G	.	.	.
2F	.	.	.	2A	.	2cc	Chri-
=54	=54	=54	=54	=54	=54	=54	=54
4.G	.	1r	.	4.G	.	4b	.
.	.	.	.	.	.	2dd	.
8F	.	.	.	8A	.	.	.
4G	.	.	.	4B	.	.	.
4A	.	.	.	4c	.	4cc	.
=55	=55	=55	=55	=55	=55	=55	=55
4G	.	1r	.	4d	.	4b	.
4E	.	.	.	4e	.	4g	.
2D	-ste	.	.	2f	.	2a	-ste
=56	=56	=56	=56	=56	=56	=56	=56
4G	e-	1r	.	2g	-ste	2.g	e-
2B	.	.	.	.	.	.	.
.	.	.	.	2r	.	.	.
8AL	.	.	.	.	.	8fL	.
8GJ	.	.	.	.	.	8eJ	.
!!LO:LB:g=original
=57	=57	=57	=57	=57	=57	=57	=57
4F	.	1r	.	1r	.	4d	.
4.G	-ley-	.	.	.	.	4.e	.
8F	.	.	.	.	.	8d	.
4G	.	.	.	.	.	[4g	-ley-
=58	=58	=58	=58	=58	=58	=58	=58
2A	-son,	1r	.	2r	.	4g]	.
.	.	.	.	.	.	4f#i	.
2r	.	.	.	[2G	e-	4g	-son,
.	.	.	.	.	.	[4b	e-
=59	=59	=59	=59	=59	=59	=59	=59
1r	.	1r	.	4G]	.	4b]	.
.	.	.	.	8F#iL	.	8aL	.
.	.	.	.	8EJ	.	8gJ	.
.	.	.	.	4D	.	4f#i	.
.	.	.	.	[4E	.	[4g	.
=60	=60	=60	=60	=60	=60	=60	=60
2r	.	1r	.	8E]L	.	8g]L	.
.	.	.	.	8DJ	.	8f#iJ	.
.	.	.	.	2G	-ley-	4g	-ley-
2D	e-	.	.	.	.	2a	.
.	.	.	.	4F#i	.	.	.
=61	=61	=61	=61	=61	=61	=61	=61
4GG	.	1r	.	1G	-son,	2g	-son,
4.C	.	.	.	.	.	.	.
.	.	.	.	.	.	2r	.
8D	.	.	.	.	.	.	.
4E	.	.	.	.	.	.	.
!!LO:LB:g=original
=62	=62	=62	=62	=62	=62	=62	=62
4F	.	1r	.	4A	e-	1r	.
2G	.	.	.	4B	.	.	.
.	.	.	.	4G	.	.	.
8FL	.	.	.	[4c	.	.	.
8EJ	.	.	.	.	.	.	.
=63	=63	=63	=63	=63	=63	=63	=63
2D	.	1r	.	4c]	.	2r	.
.	.	.	.	4f	.	.	.
4C	.	.	.	4e	.	4r	.
[4E	.	.	.	4g	.	[4G	e-
=64	=64	=64	=64	=64	=64	=64	=64
*	*	*	*	*col	*	*	*
4E]	.	1r	.	4.g	.	8G]L	.
.	.	.	.	.	.	8A	.
8DL	.	.	.	.	.	8B	.
8CJ	.	.	.	8f	.	8cJ	.
*	*	*	*	*Xcol	*	*	*
4BB	.	.	.	4d	.	4d	.
[4C	-ley-	.	.	[4e	-ley-	[4g	-ley-
=65	=65	=65	=65	=65	=65	=65	=65
8C]L	.	1r	.	8e]L	.	4g]	.
8BBJ	.	.	.	8dJ	.	.	.
4C	.	.	.	2c	.	8fL	.
.	.	.	.	.	.	8eJ	.
2D	.	.	.	.	.	2d	.
.	.	.	.	4B	.	.	.
=66	=66	=66	=66	=66	=66	=66	=66
2C	-son,	1r	.	2c	-son,	2e	-son,
4.F	e-	.	.	4.A	e-	4.c	e-
8E	.	.	.	8B	.	8d	.
!!LO:LB:g=original
=67	=67	=67	=67	=67	=67	=67	=67
4E	.	1r	.	4c	.	4e	.
4D	.	.	.	4d	.	4f	.
4.G	.	.	.	4.B	.	4.d	.
8F	.	.	.	8c	.	8e	.
=68	=68	=68	=68	=68	=68	=68	=68
4F	.	1r	.	4d	.	4f	.
4E	.	.	.	4e	.	4g	.
4.A	.	.	.	4.c	.	4.e	.
8G	.	.	.	8d	.	8f	.
=69	=69	=69	=69	=69	=69	=69	=69
4G	.	1r	.	4e	.	4g	.
4F	.	.	.	4f	.	4a	.
*col	*	*	*	*	*	*	*
4.B-i	.	.	.	2d	-ley-	4f	.
*	*	*	*	*	*	*lig	*
.	.	.	.	.	.	[4d	-ley-
8A	.	.	.	.	.	.	.
*Xcol	*	*	*	*	*	*	*
=70	=70	=70	=70	=70	=70	=70	=70
4G	.	1r	.	4B	.	4d]	.
4E	.	.	.	4G	.	2g	.
*	*	*	*	*	*	*Xlig	*
2D	-ley-	.	.	2A	.	.	.
.	.	.	.	.	.	4f#i	.
=71	=71	=71	=71	=71	=71	=71	=71
2.GG	-son,	1r	.	2G	-son,	2g	-son,
.	.	.	.	4r	.	4.g	e-
*	*Xedit	*	*	*	*	*	*
[4C	e-	.	.	[4G	e-	.	.
.	.	.	.	.	.	8f	.
!!LO:PB:g=original
=72	=72	=72	=72	=72	=72	=72	=72
8C]L	.	1r	.	2G]	.	8eL	.
8BBJ	.	.	.	.	.	8dJ	.
4C	.	.	.	.	.	4e	.
4AA	.	.	.	[2A	.	4c	.
[4D	.	.	.	.	.	[4f	.
=73	=73	=73	=73	=73	=73	=73	=73
8D]L	.	1r	.	4A]	.	8f]L	.
8CJ	.	.	.	.	.	8eJ	.
4D	.	.	.	2.B	.	4f	.
4BB	.	.	.	.	.	4d	.
[4E	.	.	.	.	.	[4g	.
=74	=74	=74	=74	=74	=74	=74	=74
8E]L	.	1r	.	2.c	.	8g]L	.
8DJ	.	.	.	.	.	8fJ	.
4E	.	.	.	.	.	4g	.
4C	.	.	.	.	.	4e	.
[4F	.	.	.	[4d	.	[4a	.
=75	=75	=75	=75	=75	=75	=75	=75
8F]L	.	1r	.	2d]	.	8a]L	.
8EJ	.	.	.	.	.	8g	.
4F	.	.	.	.	.	8f	.
.	.	.	.	.	.	8eJ	.
4G	.	.	.	4B	.	4d	.
*	*	*	*	*	*Xedit	*	*Xedit
[4E	-ley-	.	.	[4e	-ley-	[4g	-ley-
=76	=76	=76	=76	=76	=76	=76	=76
4E]	.	1r	.	4e]	.	4g]	.
4F	.	.	.	4d	.	4e	.
2G	.	.	.	2B	.	2d	.
=77	=77	=77	=77	=77	=77	=77	=77
1Cl	-son.	1r	.	1cl	-son.	1el	-son.
!!LO:LB:g=original
=78||	=78||	=78||	=78||	=78||	=78||	=78||	=78||
!!LO:TX:a:t=O| (S, A, B)
!!LO:TX:a:t=C. (T)
*M3/2	*	*M3/2	*	*M3/2	*	*M3/2	*
*met(O|)	*	*met(C.)	*	*met(O|)	*	*met(O|)	*
*	*	*	*Xedit	*	*	*	*
2.GG	Ky-	[1.G	Ky-	1.d	Ky-	1.r	.
4AA	.	.	.	.	.	.	.
2BB	-ri-	.	.	.	.	.	.
=79	=79	=79	=79	=79	=79	=79	=79
2C	-e	1.G]	.	2.e	-ri-	2.g	Ky-
2C	.	.	.	.	.	.	.
.	.	.	.	8dL	.	4a	.
.	.	.	.	8cJ	.	.	.
2GG	.	.	.	2d	.	2b	-ri-
=80	=80	=80	=80	=80	=80	=80	=80
*	*edit	*lig	*	*	*	*	*
2.C	e-	1.G	-ri-	1.c	-e	2.cc	-e
4D	.	.	.	.	.	4b	.
*	*	*	*	*	*	*	*edit
2E	.	.	.	.	.	2g	e-
=81	=81	=81	=81	=81	=81	=81	=81
*	*	*	*	*	*edit	*	*
4.D	-ley-	1.d	.	2.A	e-	4.f	-ley-
*	*	*Xlig	*	*	*	*	*
8E	.	.	.	.	.	8g	.
4F	.	.	.	.	.	4a	.
4G	.	.	.	4G	-ley-	4b-j	.
4F	.	.	.	4A	.	4a	.
4D	.	.	.	4B	.	4f	.
=82	=82	=82	=82	=82	=82	=82	=82
*	*	*col	*	*	*	*	*
2C	-son,	1.e	-e	1.c	-son,	4e	.
.	.	.	.	.	.	4g	.
4r	.	.	.	.	.	4c	.
*lig	*	*	*	*	*	*	*
2C	e-	.	.	.	.	4.cc	.
.	.	.	.	.	.	8dd	.
[4c	.	.	.	.	.	[4ee	.
!!LO:LB:g=original
=83	=83	=83	=83	=83	=83	=83	=83
4c]	.	2c	.	2r	.	4ee]	.
*Xlig	*	*	*	*	*	*	*
8BL	.	.	.	.	.	8ddL	.
8AJ	.	.	.	.	.	8ccJ	.
4G	.	1d	.	2r	.	4b	.
*	*	*Xcol	*	*	*	*	*
4F	.	.	.	.	.	2cc	.
2G	-ley-	.	.	2g	Ky-	.	.
.	.	.	.	.	.	4b	.
=84	=84	=84	=84	=84	=84	=84	=84
4.A	-son,	1.c	e-	4e	-ri-	2cc	-son,
.	.	.	.	4c	.	.	.
8G	.	.	.	.	.	.	.
4.F	.	.	.	2f	-e	4r	.
.	.	.	.	.	.	2cc	Ky-
16ELL	.	.	.	.	.	.	.
16DJJ	.	.	.	.	.	.	.
[2C	Ky-	.	.	[2e	e-	.	.
.	.	.	.	.	.	8bL	.
.	.	.	.	.	.	8aJ	.
=85	=85	=85	=85	=85	=85	=85	=85
*	*	*lig	*	*	*	*	*
*	*	*col	*	*	*	*	*
4C]	.	1c	-ley-	4e]	.	4.g	-ri-
4C	-ri-	.	.	4.e	-ley-	.	.
.	.	.	.	.	.	8f	.
2C	-e	.	.	.	.	2g	.
.	.	.	.	8d	.	.	.
.	.	.	.	4e	.	.	.
2F	.	[2A	.	4.f	.	[2a	-e
.	.	.	.	8e	.	.	.
=86	=86	=86	=86	=86	=86	=86	=86
4.F	e-	2A]	.	2c	-son,	4a]	.
*	*	*Xlig	*	*	*	*	*
.	.	.	.	.	.	8gL	.
8E	.	.	.	.	.	8fJ	.
2C	.	1c	.	2r	.	2e	.
*	*	*Xcol	*	*	*	*	*
2AA	.	.	.	2r	.	4r	.
.	.	.	.	.	.	4c	e-
=87	=87	=87	=87	=87	=87	=87	=87
*lig	*	*	*	*	*	*	*
2C	.	2G	.	1.r	.	4.e	.
.	.	.	.	.	.	8f	.
2GG	.	1d	.	.	.	4g	.
*Xlig	*	*	*	*	*	*	*
.	.	.	.	.	.	4a	.
2D	.	.	.	.	.	2b	.
!!LO:LB:g=original
=88	=88	=88	=88	=88	=88	=88	=88
4E	.	4c	.	2r	.	4cc	.
4D	.	4d	.	.	.	2b	.
*lig	*	*	*	*	*	*	*
2F	-ley	4c	.	2f	Ky-	.	.
.	.	4A	.	.	.	2a	-ley-
2G	.	2B-i	.	2d	-ri-	.	.
*Xlig	*	*	*	*	*	*	*
.	.	.	.	.	.	4g	.
=89	=89	=89	=89	=89	=89	=89	=89
1D	son,	1.A	-son,	4d	-e	1a	-son,
.	.	.	.	8cL	.	.	.
.	.	.	.	8BJ	.	.	.
.	.	.	.	4.A	.	.	.
.	.	.	.	8B	.	.	.
4.AA	e-	.	.	4c	e-	2r	.
.	.	.	.	4d	.	.	.
8BB	.	.	.	.	.	.	.
=90	=90	=90	=90	=90	=90	=90	=90
4C	.	1.r	.	4c	.	1.r	.
4D	.	.	.	4.f	.	.	.
4C	.	.	.	.	.	.	.
.	.	.	.	8e	.	.	.
4.F	-ley-	.	.	4.d	-ley-	.	.
8EL	.	.	.	8cL	.	.	.
8D	.	.	.	8B	.	.	.
8CJ	.	.	.	8AJ	.	.	.
=91	=91	=91	=91	=91	=91	=91	=91
2D	.	1.r	.	2B	-son,	2f	e-
2C	-son,	.	.	4r	.	4e	.
.	.	.	.	4c	e-	2g	.
2r	.	.	.	4B	.	.	.
.	.	.	.	4c	.	4a	.
=92	=92	=92	=92	=92	=92	=92	=92
2r	.	1.r	.	4A	.	4f	.
.	.	.	.	4B	.	2g	-ley-
2C	Ky-	.	.	4G	-ley-	.	.
.	.	.	.	4A	.	8fL	.
.	.	.	.	.	.	8eJ	.
[2BB	-ri-	.	.	[2B	-son,	2d	.
!!LO:PB:g=original
=93	=93	=93	=93	=93	=93	=93	=93
*	*	*	*	*	*	*lig	*
2BB]	.	1.r	.	2B]	.	2d	-son,
2C	-e	.	.	4r	.	2c	.
*	*	*	*	*	*	*Xlig	*
.	.	.	.	2G	Ky-	.	.
4BB	.	.	.	.	.	2r	.
4C	.	.	.	4A	.	.	.
=94	=94	=94	=94	=94	=94	=94	=94
4AA	.	1.r	.	4F	-ri-	4r	.
4BB	.	.	.	2G	-e	4G	e-
4GG	.	.	.	.	.	4B	.
4AA	.	.	.	4E	.	4c	.
2BB	.	.	.	2D	.	2d	.
=95	=95	=95	=95	=95	=95	=95	=95
4C	e-	1.r	.	1.r	.	4e	.
4.D	.	.	.	.	.	4.f	.
8E	.	.	.	.	.	8eL	.
4F	.	.	.	.	.	8d	.
.	.	.	.	.	.	8cJ	.
2G	-ley-	.	.	.	.	4.B	-ley-
.	.	.	.	.	.	8A	.
=96	=96	=96	=96	=96	=96	=96	=96
*	*	*col	*	*	*	*	*
2C	-son,	1c	e-	2G	e-	4c	-son,
.	.	.	.	.	.	2g	e-
2r	.	.	.	4E	.	.	.
.	.	.	.	4F	.	4a	.
*	*	*lig	*	*	*	*	*
4.C	e-	[2c	-ley-	4E	.	4g	.
.	.	.	.	[4G	.	[4e	.
8D	.	.	.	.	.	.	.
=97	=97	=97	=97	=97	=97	=97	=97
4E	.	2c]	.	4G]	.	4e]	.
4.F	-ley-	.	.	4.A	.	4c	.
.	.	1A	.	.	.	4f	.
*	*	*Xcol	*	*	*	*	*
*	*	*Xlig	*	*	*	*	*
8G	.	.	.	8B	.	.	.
4A	.	.	.	4c	.	4e	.
[2D	-son,	.	.	4.d	-ley-	4.f	-ley-
.	.	.	.	8c	.	8g	.
!!LO:LB:g=original
=98	=98	=98	=98	=98	=98	=98	=98
2D]	.	1d	.	2A	-son,	2a	-son,
2G	e-	.	.	2r	.	2b	e-
4A	.	2c	.	4e	e-	4cc	.
*	*	*	*	*	*	*col	*
4F	.	.	.	4f	.	[4a	.
=99	=99	=99	=99	=99	=99	=99	=99
2G	.	2B	.	2d	.	8a]L	.
.	.	.	.	.	.	8bJ	.
*	*	*	*	*	*	*Xcol	*
.	.	.	.	.	.	4g	.
1D	-ley-	1A	.	4.d	-ley-	8aL	-ley-
.	.	.	.	.	.	8g	.
.	.	.	.	.	.	8f#i	.
.	.	.	.	8c	.	8eJ	.
.	.	.	.	4A	.	2f#i	.
.	.	.	.	4d	.	.	.
=100	=100	=100	=100	=100	=100	=100	=100
2GG	-son,	1G	-son,	2B	-son,	4g	-son,
.	.	.	.	.	.	2dd	e-
2GG	e-	.	.	4G	e-	.	.
.	.	.	.	4d	.	8ccL	.
.	.	.	.	.	.	8bJ	.
4AA	.	2r	.	4c	.	4a	.
*	*Xedit	*	*	*	*Xedit	*	*
[4GG	-ley-	.	.	[4d	-ley-	4b	.
=101	=101	=101	=101	=101	=101	=101	=101
*	*	*	*	*	*	*	*Xedit
8GG]L	.	1.r	.	4d]	.	4b	-ley-
8AA	.	.	.	.	.	.	.
8BB	.	.	.	8cL	.	8aL	.
8CJ	.	.	.	8BJ	.	8gJ	.
4D	.	.	.	4A	.	4f#i	.
4E	.	.	.	4G	.	2g	.
2D	.	.	.	2A	.	.	.
.	.	.	.	.	.	4f#i	.
=102	=102	=102	=102	=102	=102	=102	=102
*	*	*	*edit	*	*	*	*
1.GGl	-son.	1.Gl	--son.	1.Gl	-son.	1.gl	-son.
*	*	*	*Xedit	*	*	*	*
==	==	==	==	==	==	==	==
*-	*-	*-	*-	*-	*-	*-	*-
!!!system-decoration: [*]
!!!RDF**kern: j = editorial accidental, optional, paren up
!!!RDF**kern: i = editorial accidental
!!!RDF**kern: l = terminal breve
!!!PTL: Gaspar van Weerbeke: Collected Works. I. Masses, Part 1
!!!PPR: American Institute of Musicology
!!!PC#: Corpus Mensurabilis Musicae 106/I.1
!!!PDT: 2016
!!!PED: Pavanello, Agnese
!!!YEM: CC-BY-SA 4.0 (https://creativecommons.org/licenses/by-nc/4.0/legalcode)
!!!EED: Mair-Gruber, Roland
!!!EEV: 2021/10/23
!!!title: @{OPR} &mdash; @{OTL}
